X: 102
T: 102. Du lebensf\"urst, Herr Jesu Christ
N: Derived from chor102.krn
C: Johann Sebastian Bach
%%abc-version 2.0
%%abcx-abcm2ps-target-version 5.9.1 (29 Sep 2008)
%%abc-creator hum2abc beta
%%abcx-conversion-date 2019/03/11 17:28:18
%%abc-edited-by Craig Stuart Sapp
%%humdrum-veritas 507770157
%%humdrum-veritas-data 1715389247
%%
%%barnumbers 0
L: 1/4
M: 3/4
%%staves [1 2 3 4]
V: 1 clef=treble
V: 2 clef=treble
V: 3 clef=treble-8
V: 4 clef=bass
K: G
[V:1] GGA | 
[V:2] DEF | 
[V:3] BBd- | 
[V:4] G,E,D, | 
[V:1] B3/c/d | 
[V:2] G3 | 
[V:3] d3/c/B | 
[V:4] G,3/A,/B, | 
[V:1] dd^c | 
[V:2] GEE | 
[V:3] BAA | 
[V:4] G,A,A,, | 
[V:1] !fermata!d2B | 
[V:2] !fermata!F2G | 
[V:3] !fermata!A2G | 
[V:4] !fermata!D,2G, | 
[V:1] c2B | 
[V:2] E2D | 
[V:3] G2G | 
[V:4] C,2G,, | 
[V:1] A3 | 
[V:2] D3 | 
[V:3] F3 | 
[V:4] D,3 | 
[V:1] GF2 | 
[V:2] B,D2 | 
[V:3] EA2 | 
[V:4] E,D,2 | 
[V:1] !fermata!G3 :|]  
[V:2] !fermata!D3 :|]  
[V:3] !fermata!B3 :|]  
[V:4] !fermata!G,,3 :|]  
[V:1] AAB | 
[V:2] DDD | 
[V:3] FF^G | 
[V:4] D,D,B,, | 
[V:1] c2c | 
[V:2] C2E | 
[V:3] A2A | 
[V:4] A,,2C, | 
[V:1] B3/A/B | 
[V:2] E2E | 
[V:3] ^G3/A/^G | 
[V:4] E,2E,, | 
[V:1] !fermata!A3 | 
[V:2] !fermata!C3 | 
[V:3] !fermata!A3 | 
[V:4] !fermata!A,,3 | 
[V:1] BBB | 
[V:2] E^GG | 
[V:3] ^GBe | 
[V:4] E,E,E, | 
[V:1] c3/d/e | 
[V:2] A3 | 
[V:3] e3/d/c | 
[V:4] A,3/B,/C | 
[V:1] e^dd | 
[V:2] AFF | 
[V:3] cBB | 
[V:4] A,B,B, | 
[V:1] !fermata!e2f | 
[V:2] !fermata!G2A | 
[V:3] !fermata!B2=d | 
[V:4] !fermata!E,2D, | 
[V:1] g2B | 
[V:2] B2G | 
[V:3] d2d | 
[V:4] G,2G, | 
[V:1] c2B | 
[V:2] G2G | 
[V:3] e2d | 
[V:4] C,2G,, | 
[V:1] A!fermata!Ad | 
[V:2] F!fermata!FG | 
[V:3] d!fermata!dd | 
[V:4] D,!fermata!D,B,, | 
[V:1] e3/d/c | 
[V:2] G3/F/E | 
[V:3] c3/A/G | 
[V:4] C,3/D,/E, | 
[V:1] BA2 | 
[V:2] DD2 | 
[V:3] GGF | 
[V:4] G,D,2 | 
[V:1] !fermata!G3 |]  
[V:2] !fermata!D3 |]  
[V:3] !fermata!B3 |]  
[V:4] !fermata!G,,3 |]  



